svg/bread_slice_outline.svg

<svg xmlns="http://www.w3.org/2000/svg" viewBox="0 0 24 24"><path d="M12 2c5.5 0 10 3.36 10 7.5 0 1.69-.74 3.25-2 4.5v8H4v-8c-1.26-1.25-2-2.81-2-4.5C2 5.36 6.5 2 12 2m6 11.14c1.24-.97 2-2.25 2-3.64C20 6.46 16.42 4 12 4S4 6.46 4 9.5c0 1.39.76 2.67 2 3.64V20h12zM8 18v-4h4v4z"/></svg>

<?xml version="1.0" encoding="UTF-8"?><!DOCTYPE svg PUBLIC "-//W3C//DTD SVG 1.1//EN" "http://www.w3.org/Graphics/SVG/1.1/DTD/svg11.dtd"><svg xmlns="http://www.w3.org/2000/svg" xmlns:xlink="http://www.w3.org/1999/xlink" version="1.1" id="mdi-bread-slice-outline" width="24" height="24" viewBox="0 0 24 24"><path d="M12,2C17.5,2 22,5.36 22,9.5C22,11.19 21.26,12.75 20,14V22H4V14C2.74,12.75 2,11.19 2,9.5C2,5.36 6.5,2 12,2M18,13.14C19.24,12.17 20,10.89 20,9.5C20,6.46 16.42,4 12,4C7.58,4 4,6.46 4,9.5C4,10.89 4.76,12.17 6,13.14V20H18V13.14M8,18V14H12V18H8Z" /></svg>
